img/donate-patreon.svg

<svg height="100" viewBox="0 0 300 100" width="300" xmlns="http://www.w3.org/2000/svg"><path d="m288.367244 102v-104h7.630884v104zm-42.487675-69.3314516h7.583192v32.9721367h-7.959869l-11.871671-21.1970201v21.1970201h-7.630884v-32.9721367h7.959869l11.919363 21.478701zm-49.977426-.8481572c10.92657 0 17.427422 8.2905082 17.427422 17.3342742 0 9.0436687-6.500852 17.3342742-17.427422 17.3342742-10.976209 0-17.477061-8.2906055-17.477061-17.3342742 0-9.043766 6.500852-17.3342742 17.477061-17.3342742zm9.656378 17.3342742c0-5.4167599-3.675283-10.4569396-9.656378-10.4569396-6.029761 0-9.656378 5.0401797-9.656378 10.4569396 0 5.41676 3.626617 10.4568423 9.656378 10.4568423 5.981095 0 9.656378-5.0400823 9.656378-10.4568423zm-132.8795879-9.8920206v-6.5940964h22.5610407v6.5940964h-7.4898493v26.3780403h-7.6305924v-26.3780403zm80.8766679 7.0182724h12.481947v5.9833336h-12.481947v7.2522602h12.481947v6.1241741h-20.112831v-32.9721367h20.112831v6.1241741h-12.481947zm-32.595751-13.6123688c7.299953 0 12.010857 5.5117567 12.010857 11.9175143 0 4.6161011-2.449865 8.7130295-6.548545 10.6452784l6.596238 10.409344h-8.85533l-5.842883-9.1387628h-3.579897v9.1387628h-7.629911v-32.9721367zm4.285559 11.9175143c0-3.062087-2.073186-5.6999981-5.276406-5.6999981h-5.228713v11.3984389h5.228713c3.20322 0 5.276406-2.6363538 5.276406-5.6984408zm-67.4985789 17.051036h-11.7292728l-1.2723332 4.0035864h-8.149765l11.7767711-32.9721367h7.018175l11.9175143 32.9721367h-8.2905082zm-5.8425905-19.5481067-4.0510847 13.5664277h8.0071727zm-34.1036294-9.4204436c7.3015105 0 12.012511 5.5117567 12.012511 11.9175143s-4.7110005 11.9158596-12.012511 11.9158596h-6.1700178v9.1387628h-7.6305924v-32.9721367zm4.3344202 11.9175143c0-3.062087-2.0730894-5.6999981-5.2760168-5.6999981h-5.2284212v11.3984389h5.2284212c3.2029274 0 5.2760168-2.6363538 5.2760168-5.6984408z" fill-rule="evenodd"/></svg>

<svg xmlns="http://www.w3.org/2000/svg" width="300" height="100" viewBox="0 0 300 100" role="img">
  <path fill-rule="evenodd" d="M288.367244,102 L288.367244,-2 L295.998128,-2 L295.998128,102 L288.367244,102 Z M245.879569,32.6685484 L253.462761,32.6685484 L253.462761,65.6406851 L245.502892,65.6406851 L233.631221,44.443665 L233.631221,65.6406851 L226.000337,65.6406851 L226.000337,32.6685484 L233.960206,32.6685484 L245.879569,54.1472494 L245.879569,32.6685484 Z M195.902143,31.8203912 C206.828713,31.8203912 213.329565,40.1108994 213.329565,49.1546654 C213.329565,58.1983341 206.828713,66.4889396 195.902143,66.4889396 C184.925934,66.4889396 178.425082,58.1983341 178.425082,49.1546654 C178.425082,40.1108994 184.925934,31.8203912 195.902143,31.8203912 Z M205.558521,49.1546654 C205.558521,43.7379055 201.883238,38.6977258 195.902143,38.6977258 C189.872382,38.6977258 186.245765,43.7379055 186.245765,49.1546654 C186.245765,54.5714254 189.872382,59.6115077 195.902143,59.6115077 C201.883238,59.6115077 205.558521,54.5714254 205.558521,49.1546654 Z M72.6789331,39.2626448 L72.6789331,32.6685484 L95.2399738,32.6685484 L95.2399738,39.2626448 L87.7501245,39.2626448 L87.7501245,65.6406851 L80.1195321,65.6406851 L80.1195321,39.2626448 L72.6789331,39.2626448 Z M153.555601,46.2809172 L166.037548,46.2809172 L166.037548,52.2642508 L153.555601,52.2642508 L153.555601,59.516511 L166.037548,59.516511 L166.037548,65.6406851 L145.924717,65.6406851 L145.924717,32.6685484 L166.037548,32.6685484 L166.037548,38.7927225 L153.555601,38.7927225 L153.555601,46.2809172 Z M120.95985,32.6685484 C128.259803,32.6685484 132.970707,38.1803051 132.970707,44.5860627 C132.970707,49.2021638 130.520842,53.2990922 126.422162,55.2313411 L133.0184,65.6406851 L124.16307,65.6406851 L118.320187,56.5019223 L114.74029,56.5019223 L114.74029,65.6406851 L107.110379,65.6406851 L107.110379,32.6685484 L120.95985,32.6685484 Z M125.245409,44.5860627 C125.245409,41.5239757 123.172223,38.8860646 119.969003,38.8860646 L114.74029,38.8860646 L114.74029,50.2845035 L119.969003,50.2845035 C123.172223,50.2845035 125.245409,47.6481497 125.245409,44.5860627 Z M57.7468301,61.6370987 L46.0175573,61.6370987 L44.7452241,65.6406851 L36.5954591,65.6406851 L48.3722302,32.6685484 L55.3904052,32.6685484 L67.3079195,65.6406851 L59.0174113,65.6406851 L57.7468301,61.6370987 Z M51.9042396,42.088992 L47.8531549,55.6554197 L55.8603276,55.6554197 L51.9042396,42.088992 Z M17.8006102,32.6685484 C25.1021207,32.6685484 29.8131212,38.1803051 29.8131212,44.5860627 C29.8131212,50.9918203 25.1021207,56.5019223 17.8006102,56.5019223 L11.6305924,56.5019223 L11.6305924,65.6406851 L4,65.6406851 L4,32.6685484 L17.8006102,32.6685484 Z M22.1350304,44.5860627 C22.1350304,41.5239757 20.061941,38.8860646 16.8590136,38.8860646 L11.6305924,38.8860646 L11.6305924,50.2845035 L16.8590136,50.2845035 C20.061941,50.2845035 22.1350304,47.6481497 22.1350304,44.5860627 Z"/>
</svg>
